X:1
T:Le temps qui court
T:Le temps qui court
T:Jean Richafort
C:Jean Richafort
%%score [ 1 2 3 4 ]
L:1/8
Q:1/4=100
M:2/2
K:C
V:1 treble-8 nm="Tenor 1" snm="T 1"
V:2 treble-8 nm="Tenor 2" snm="T 2"
V:3 treble-8 nm="Tenor 3" snm="T 3"
V:4 bass nm="Bassus" snm="B"
V:1
 z8 | z2 D2 F3 G | A4 z2 D2 | F2 G2 A4 | z4 z2 A2 | c6 B2 | A3 G FE e2- | e2 d4 c2 | d2 f2 f2 f2 | %9
w: |Le temps qui|court, le|temps qui court|re-|quiert que|l'on se tai- * *||se et que l'on|
 e2 d2 z2 f2 | f2 f2 e4 | e4 z2 A2 | B2 c2 d4 | d2 f4 ed | f2 e3 c e2- | ed c2 B4 | A4 z4 | z8 | %18
w: ry- e, et|que l'on ry-|e quant|on est a|mal ai- * *|||se,||
 z8 | z4 z2 A2 | c2 c2 c3 B | A2 F2 G2 G2 | F2 c2 d2 f2- | f2 ed e4 | f8 | z2 f2 e2 d2 | %26
w: |dis-|si- mu- lant ce|qu'on voit et en-|tend, de mon- strer|_ _ _ _|fault|qu'on est du|
 c3 B AG A2 | F3 E/D/ E4 | D4 z4 | z2 D2 F3 G | A4 z2 D2 | F2 G2 A4 | z4 z2 A2 | c6 B2 | %34
w: tout _ _ _ _|_ _ _ con-|tent,|com- bien qu'on|voit, com-|bien qu'on voit|cho-|se qui|
 A3 G FE e2- | e2 d4 c2 | d8 | z2 D2 F3 G | A4 z2 D2 | F2 G2 A4 | z4 z2 A2 | c6 B2 | A3 G FE e2- | %43
w: point ne plai- * *||se,|par quoy je|dis, par|quoy je dis:|qui|veult vi-|vre'à son ai- * *|
 e2 d4 c2 | d2 f2 f2 f2 | e4 d4 | z8 | z2 d3 c BA | B4 A4 | z2 A2 c2 B2 | c6 BA | B2 A4 G2 | %52
w: |se, tai- re'ou bien|di- re-||[tai- re'aou bie _|di- re]|af- fin qu'il|ne des- *|plai- * *|
 A2 A2 A2 A2 | c4 z2 FG | AB cd ec d2- | dB c2 d2 e2 | A2 B2 A4- | A4 z4 | z2 D2 F3 G | A4 z2 D2 | %60
w: se, car à flat-|ter, ung _|_ _ _ _ _ _ _|* * * chas- cung|y pre- tend:|_|le temps qui|court, le|
 F2 G2 A4 | z4 z2 A2 | c6 B2 | A3 G FE e2- | e2 d4 c2 | d8 |] %66
w: temps qui court|re-|quiert que|l'on se tai- * *||se.|
V:2
 z8 | z4 z2 D2 | F3 G A4 | z4 z2 A2 | c2 B2 A3 G | FE e4 d2- | d2 c2 d2 G2- | G2 F2 E4 | %8
w: |Le|temps qui court|re-|quiert que l'on se|tai- * * *|||
 D2 d2 d2 d2 | cB AG A4 | z2 A2 c2 c2 | cB cd e2 f2 | ed cB A2 B2- | BA FG A2 B2- | BA A4 G2 | %15
w: se et que l'on|ry- * * * e|quant on est|a _ _ _ _ mal|ai- * * * * *|||
 A4 z2 e2 | e2 e2 e3 d | e2 f2 e2 d2 | c2 f4 e2 | f4 z2 F2 | FEFG A2 G2- | G2 F4 E2 | F4 z2 F2 | %23
w: se, dis-|si- mu- lant ce|qu'on voit et _|_ _ en-|tend, de|mon- * * * * *|* * strer|fault, de|
 G4 G4 | A4 F4 | z4 z2 f2- | f2 e2 c2 e2- |"^#" ed d4 c2 | d8 | z4 z2 D2 | F3 G A4 | z4 z2 A2 | %32
w: mon strer|fault _|qu'on|_ est du tout|_ _ _ con-|tent,|com-|bien qu'on voit|cho-|
 c2 B2 A3 G | FE e4 d2- | d2 c2 d2 G2- | G2 F2 E4 | D8 | z4 z2 D2 | F3 G A4 | z4 z2 A2 | %40
w: se qui point ne|plai- * * *|* * se, [point|_ ne plai-|se,]|par|quoy je dis,:|qui|
 c2 B2 A3 G | FE e4 d2- | d2 c2 d2 G2- | G2 F2 E4 | D4 z2 d2 | d2 c2 B4 | A4 z4 | z4 z2 A2 | %48
w: veult vi- vre'à son|ai- * * *|* * se, [à|_ son ai-|se,] tai-|re'ou bien di-|re|af-|
 A2 G2 F2 D2 | F4 E4 | z2 A2 A3 G | F2 E2 D4 | E2 e3 d cB | A2 c3 B AG | F4 z4 | z2 f2 f2 e2- | %56
w: fin qu'il ne des-|plai- se,|car à flat-|ter, car à|_ _ _ _ _|* * * flat- *|ter,|ung chas- cung|
"^#" ed d4 c2 | d8 | z4 z2 D2 | F3 G A4 | z4 z2 A2 | c2 B2 A3 G | FE e4 d2- | d2 c2 d2 G2- | %64
w: _ _ y pre-|tend:|le|temps qui court|re-|quiert que l'on se|tai- * * *||
 G2 F2 E4 | D8 |] %66
w: |se.|
V:3
 D4 F3 G | A4 D2 F2- | FG A2 z4 | A2 c3 B A2- | A2 G2 F2 E2 | z2 A3 GFE | FD A3 B c2- | cB AG A4 | %8
w: Le temps qui|court, le temps|_ qui court|re- quiert que l'on|_ se tai- se,|[que _ _ _|l'on _ _ se tai-|* * * * se]|
 z2 D2 F3 G | A2 DE FEFG | AB A4 G2 | A4 z4 | z8 | z2 d2 d2 d2 | c3 B/A/ c2 B2- |"^#" BA A4 G2 | %16
w: et que l'on|ry- * * * * * *||e||quant on est|a _ _ mal ai-||
 A4 z4 | z8 | z8 | z2 A2 A2 A2 | A3 G F2 E2 | F2 D2 C4 | z4 A4 | c4 c4 | c4 z2 c2- | %25
w: se,|||dis- si- mu-|lant ce qu'on voit|et en- tend,|de|mon- strer|fault qu'on-|
 cB/A/ B2 c2 A2- | A2 GF E2 c2- | cB AG A4 | z2 D2 F3 G | A4 D2 F2- | FG A2 z4 | A2 c3 B A2- | %32
w: * * * est du tout-||* * con- * tent,|com- bien qu'on|voit, com bien|_ qu'on voit,|cho- se qui point|
 A2 G2 F2 E2 | z2 A3 GFE | FE A3 B c2- | cB AG A4 | z2 D2 F3 G | A4 D2 F2- | FG A2 z4 | %39
w: _ ne plai- se,|[ne _ _ _|plai- * * * *|* * * * se,]|par quoy je|dis, par quoy|_ je dis,:|
 A2 c3 B A2- | A2 G2 F2 E2 | z2 A3 GFE | FD A3 B c2- | cB AG A3 G | FE F4 ED | A4 z4 | %46
w: qui veult vi- vre'à|_ son ai- se,|[à _ _ _|_ _ _ son ai-|||se,]|
 z2 d2 d2 c2 | B4 A4 | z2 e2 f3 e | c2 d2 e4 | AB cd e2 f2- | fe c2 d4 | c8 | z2 A2 A2 A2 | c6 B2 | %55
w: tai- re'ou bien|di- re,|af- fin qu'il|ne des- plai-|||se,|car à flat-|ter ung|
 A3 G A4 | F2 G2 E4 | z2 D2 F3 G | A4 D2 F2- | FG A2 z4 | A2 c3 B A2- | A2 G2 F2 E2 | z2 A3 GFE | %63
w: chas- * ung|y pre- tend:|le temps qui|court, le temps|_ qui court|re- quiert que l'on|_ se tai- se,|que _ _ _|
 FD A3 B c2- | cB AG A4- | A8 |] %66
w: _ _ l'on se tai-|* * * * se.|_|
V:4
 z4 z2 D,2 | F,3 G, A,4 | z2 D,2 F,4- |"^#" F,2 E,2 C,2 D,2 | E,4 A,,4- | A,,4 z2 D,2 | F,6 E,2 | %7
w: Le|temps qui court|re- quiert|_ que l'on se|tai- se,|_ que|l'on se|
 C,2 D,2 A,,4 | D,8 | z4 z2 D,2 | D,2 D,2 C,4 | A,,2 A,2 A,2 A,2 | G,2 A,2 F,2 G,2- | %13
w: tai- * *|se,|et|due l'on ry-|e quant on est|à mal ai- *|
 G,F, D,E, F,2 G,2 | A,2 A,,2 E,3 D, | C,2 A,,2 E,4 | z2 A,2 A,2 A,2 | A,3 G, A,2 B,2 | %18
w: ||* * se,|dis- si- mu-|lant ce qu'on voit|
 A,2 G,F, G,4 | F,8 | z8 | z8 | z4 D,4 | C,4 C,4 | F,4 z2 F,2 | E,2 D,2 C,2 D,2 | A,,8- | A,,8 | %28
w: et _ _ en-|tend,|||de|mon- strer|fault qu'on|est du tout con-|tent,|_|
 z4 z2 D,2 | F,3 G, A,4 | z2 D,2 F,4- | F,2 E,2 C,2 D,2 | E,4 A,,4- | A,,4 z2 D,2 | F,6 E,2 | %35
w: com-|bien qu'on voit|cho- se|_ qui point ne|plai- se,|_ qui|point ne|
 C,2 D,2 A,,4 | D,4 z2 D,2 | F,3 G, A,4 | z2 D,2 F,4- | F,2 E,2 C,2 D,2 | E,4 A,,4- | A,,4 z2 D,2 | %42
w: plai- * *|se, par|quoy je dis,:|qui veult|_ vi- vre'à son|ai- se,|_ qui|
 F,6 E,2 | C,2 D,2 A,,4 | D,8 | z4 z2 G,2 | G,2 F,2 E,2 A,2- | A,2 G,2 F,2 F,2 | E,4 z2 A,2 | %49
w: veult vi-|vre'à son ai-|se,|tai-|re'ou bien di- re,|_ ou bien di-|re, af-|
 A,6 G,2 | F,3 E,/D,/ C,2 D,2- | D,C, A,,2 B,,4 | A,,4 z2 A,2 | A,2 A,2 C3 B, | A,G, A,4 G,2 | %55
w: fin qu'il|ne _ _ _ des-|* * * plai-|se, car|à flat- ter _|_ _ _ ung|
 F,3 E, D,2 C,2 | D,2 G,,2 A,,4 | D,4 z2 D,2 | F,3 G, A,4 |"^#" z2 D,2 F,4- | F,2 E,2 C,2 D,2 | %61
w: chas- cung y _|_ _ pre-|tend: le|temps qui court,|re- quiert|_ que l'on se|
 E,4 A,,4- | A,,4 z2 D,2 | F,6 E,2 | C,2 D,2 A,,4 | D,8 |] %66
w: tai- se,|_ que|l'on se|tai- * *|se.|

